X:73
T:Double Lead Through
R:polka 32 rant
C:Trad. arr. P J Headford
Z:P J Headford
M:4/4
L:1/8
Q:1/4=180
K:G
|:g2d2 c2A2|G2G2 GABG|E2E2 F2F2|G4 G4:|
|:A2dd ^c2d2|A2dd ^c2d2|1A2d2 e2d2|f4 fedB:|2
A2g2 f2e2|d2c2 B2A2||
|:G2G2 GABG|A2A2 ABcA|Bcd2 cde2|e2d2 d2ef|
g2g2 gfe2|d2de dcB2|ABc2 Bcd2|1egfe dcBA:|2
e2f2 g4|]

